!!!!SEGMENT: Wil3022-Allons_allons_gay.krn
!!!id: Wil3022
!!!AGN: Chanson
!!!SCT: Bernstein (1984)
!!!voices: 3
!!!COM: Adrian Willaert
!!!OTL: Allons, allons gay
**kern	**kern	**kern
*part3	*part2	*part1
*staff3	*staff2	*staff1
*I"Bassus	*I"Tenor	*I"Superius
*I'B	*I'T	*I'S
*clefGv2	*clefGv2	*clefG2
*k[b-]	*k[b-]	*k[b-]
*F:	*F:	*F:
*M2/1	*M2/1	*M2/1
*met(C|)	*met(C|)	*met(C|)
=1	=1	=1
1.d	1r	1r
.	2.d	2.dd
2G	.	.
.	4d	4dd
=2	=2	=2
2c	2e	2cc
2B-y	2f	2dd
1G	1g	1b-y
=3	=3	=3
2.c	2r	2a
.	2.e	2g
4B-y	.	.
1A	.	1cc
.	4d	.
.	2c	.
=4	=4	=4
2G	2.d	2b-y
2F	.	2a
.	4d	.
2E	4e	2g
.	4c	.
2D	[2f	2f
=5	=5	=5
2.D	2f]	2.dd
.	4e	.
4D	4d	4dd
2A	2e	2cc
2B-y	2d	2dd
=6	=6	=6
1G	2.g	1b-y
.	4g	.
2r	2f	2a
[2C	2g	2g
=7	=7	=7
4C]	1e	1cc
4D	.	.
4E	.	.
4F	.	.
2G	2d	2b-y
2A	2c	4a
.	.	4g
=8	=8	=8
2B-y	2d	4f
.	.	4g
1F	1c	2.a
.	.	4g
2G	2B-y	[2g
=9	=9	=9
1D	1A	2g]
.	.	2f#i
1r	1G	[1g
=10	=10	=10
2c	1r	1g]
4c	.	.
4c	.	.
2d	2f	1r
2d	4f	.
.	4f	.
=11	=11	=11
2c	2g	0r
2B-y	2g	.
4A	2f	.
4B-y	.	.
4c	2e	.
4A	.	.
=12	=12	=12
4B-y	4d	2b-y
4c	4e	.
1d	4f	4b-y
.	4d	4b-y
.	4e	2cc
.	4f	.
2c	[2g	2cc
=13	=13	=13
1d	4g]	2b-y
.	4f#i	.
.	4f#i	2a
.	8eL	.
.	8f#iJ	.
1r	1g	4g
.	.	4a
.	.	4b-y
.	.	4g
=14	=14	=14
2F	1r	4a
.	.	4b-y
4F	.	1cc
4F	.	.
2G	2B-y	.
2G	4B-y	2b-y
.	4B-y	.
=15	=15	=15
2F	2c	4a
.	.	4g
2E	2c	2.g
1D	2B-y	.
.	.	4f#i
.	2A	4f#i
.	.	8eL
.	.	8f#iJ
=16	=16	=16
1r	2G	2g
.	1g	1b-y
2r	.	.
2d	4f	4a
.	4e	4g
=17	=17	=17
4d	1f	1a
4d	.	.
2d	.	.
2e	1g	1r
2c	.	.
=18	=18	=18
2d	2r	2dd
1B-y	2f	4dd
.	.	4dd
.	4f	2dd
.	4f	.
2r	2g	2ee
=19	=19	=19
2r	2a	2cc
2B-y	2f	2dd
2G	2g	2b-y
[2c	2e	4a
.	.	4g
=20	=20	=20
4c]	4e	2cc
4B-y	4d	.
2G	1g	1b-y
2B-y	.	.
2F	[2f	2a
=21	=21	=21
1c	2f]	1g
.	2e	.
1F	2d	1f
.	2c	.
=22	=22	=22
2.B-y	2.d	2.f
4B-y	4d	4g
2F	2c	2a
2F	2d	2a
=23	=23	=23
2G	1B-y	2d
2G	.	2.dd
2F	2A	.
.	.	4cc
2G	2G	2b-y
=24	=24	=24
2C	1c	2a
2E	.	1g
1D	2B-y	.
.	2A	2f#i
=25	=25	=25
1r	1G	0g
2G	2B-y	.
4G	4B-y	.
4G	4B-y	.
=26	=26	=26
2F	2c	2r
2E	2c	2g
2E	2B-y	4g
.	.	4g
2F	2A	2f
=27	=27	=27
2C	1G	2e
2r	.	2.d
2G	2B-y	.
.	.	4c
4G	4B-y	4d
4G	4B-y	4e
=28	=28	=28
2F	2c	2f
2E	2c	2.g
2D	2B-y	.
.	.	8f#iL
.	.	8eJ
2D	2A	2f#i
=29	=29	=29
2.G	2G	1g
.	2g	.
4A	.	.
4B-y	4g	2dd
4c	4g	.
4d	2f	4dd
4B-y	.	4dd
=30	=30	=30
2c	2e	2cc
2G	2.d	2b-y
1d	.	2.a
.	4e	.
.	4f	.
.	4g	4b-y
=31	=31	=31
1r	2a	2cc
.	1b-y	1dd
2d	.	.
4d	4a	4cc
4d	4g	4b-y
=32	=32	=32
2d	2f	2a
2e	2.g	2g
2c	.	1a
.	8f#i	.
.	8e	.
2d	2f#i	.
=33	=33	=33
1G	2g	1r
.	2d	.
2B-y	4d	2dd
.	4d	.
4B-y	2d	4dd
4B-y	.	4dd
=34	=34	=34
2B-y	2f	2dd
2G	2g	2ee
2A	2e	2cc
2B-y	2d	2dd
=35	=35	=35
2G	4g	2b-y
.	4f	.
4c	4e	4a
4B-y	2d	4g
2A	.	2cc
.	4c	.
4G	4d	4b-y
4F	[4f	4a
=36	=36	=36
2c	4f]	2g
.	4e	.
2F	2f	2f
4B-y	4d	4f
4B-y	4d	4g
4A	4c	4a
4F	4d	4a
=37	=37	=37
2G	2B-y	2d
4D	4A	4f
4E	4G	4g
4F	2c	4a
4C	.	2g
2D	4B-y	.
.	4A	4f#i
=38	=38	=38
1G	2G	1g
.	2d	.
2B-y	4d	2dd
.	4d	.
4B-y	2d	4dd
4B-y	.	4dd
=39	=39	=39
2B-y	2f	2dd
2G	2g	2ee
2A	2e	2cc
2B-y	2d	2dd
=40	=40	=40
2G	4g	2b-y
.	4f	.
4c	4e	4a
4B-y	2d	4g
2A	.	2cc
.	4c	.
4G	4d	4b-y
4F	[4f	4a
=41	=41	=41
2c	4f]	2g
.	4e	.
2F	2f	2f
4B-y	4d	4f
4B-y	4d	4g
4A	4c	4a
4F	4d	4a
=42	=42	=42
2G	2B-y	2d
4D	4A	4f
4E	4G	4g
4F	2c	4a
4C	.	2g
2D	4B-y	.
.	4A	4f#i
=43	=43	=43
00Gl	00Gl	00gl
==	==	==
*-	*-	*-
!!!system-decoration: [*]
!!!RDF**kern: i = editorial accidental
!!!RDF**kern: l = terminal long
!!!ENC: Benjamin Ory
!!!END: 2023/10/6
!!!EED: Benjamin Ory
!!!EEV: 2023/10/06
!!!YEC: Copyright 2023 Benjamin Ory, All Rights Reserved
!!!ONB: Translated from MusicXML on 2023/10/06
